common/resources/fonts/svg/question-inverse.svg

<?xml version="1.0" encoding="UTF-8" standalone="no"?>
<svg width="1024px" height="1024px" viewBox="0 0 1024 1024" version="1.1" xmlns="http://www.w3.org/2000/svg" xmlns:xlink="http://www.w3.org/1999/xlink">
    <!-- Generator: Sketch 3.7.1 (28215) - http://www.bohemiancoding.com/sketch -->
    <title>question-inverse</title>
    <desc>Created with Sketch.</desc>
    <defs></defs>
    <g id="Page-1" stroke="none" stroke-width="1" fill="none" fill-rule="evenodd">
        <g id="question-inverse" fill="#000000">
            <path d="M563.25,717 C563.25,745.304414 540.304414,768.25 512,768.25 C483.695586,768.25 460.75,745.304414 460.75,717 C460.75,688.695586 483.695586,665.75 512,665.75 C540.304414,665.75 563.25,688.695586 563.25,717 L563.25,717 Z" id="Shape"></path>
            <path d="M512,102 C285.563086,102 102,285.563086 102,512 C102,738.436914 285.563086,922 512,922 C738.436914,922 922,738.436914 922,512 C922,285.563086 738.436914,102 512,102 L512,102 Z M512,845.125 C328.020508,845.125 178.875,695.979492 178.875,512 C178.875,328.020508 328.020508,178.875 512,178.875 C695.979492,178.875 845.125,328.020508 845.125,512 C845.125,695.979492 695.979492,845.125 512,845.125 L512,845.125 Z" id="Shape"></path>
            <path d="M512,614.700195 C490.771289,614.700195 473.5625,597.491406 473.5625,576.262695 L473.5625,550.637695 C473.5625,523.717031 483.943828,499.504609 504.418203,478.671484 C519.524141,463.301289 537.873242,451.773242 555.616953,440.624766 C592.10375,417.703203 608.09375,405.408008 608.09375,383.875 C608.09375,360.450547 594.576563,344.806484 583.235898,335.807305 C565.030938,321.361211 539.731055,313.40625 512,313.40625 C469.931758,313.40625 432.088438,341.499258 419.971016,381.724102 C413.846641,402.049531 392.406523,413.561563 372.079492,407.440391 C351.754063,401.316016 340.24043,379.875898 346.363203,359.548867 C356.863047,324.698867 378.713164,293.380313 407.888828,271.363633 C438.086289,248.576602 474.087813,236.53125 512,236.53125 C557.010313,236.53125 599.280352,250.402383 631.020117,275.590156 C665.809258,303.196289 684.96875,341.651406 684.96875,383.875 C684.96875,450.147656 633.84207,482.268594 596.512852,505.720273 C565.192695,525.395469 550.4375,536.24125 550.4375,550.637695 L550.4375,576.262695 C550.4375,597.491406 533.228711,614.700195 512,614.700195 L512,614.700195 Z" id="Shape"></path>
        </g>
    </g>
</svg>

<svg width="1024" height="1024" viewBox="0 0 1024 1024">
    <g fill-rule="evenodd">
        <path d="M563.25 717c0 28.304-22.946 51.25-51.25 51.25s-51.25-22.946-51.25-51.25 22.946-51.25 51.25-51.25 51.25 22.946 51.25 51.25z"/>
        <path d="M512 102c-226.437 0-410 183.563-410 410s183.563 410 410 410 410-183.563 410-410-183.563-410-410-410zm0 743.125c-183.98 0-333.125-149.146-333.125-333.125 0-183.98 149.146-333.125 333.125-333.125 183.98 0 333.125 149.146 333.125 333.125 0 183.98-149.146 333.125-333.125 333.125z"/>
        <path d="M512 614.7c-21.229 0-38.438-17.209-38.438-38.437v-25.625c0-26.921 10.382-51.133 30.856-71.967 15.106-15.37 33.455-26.898 51.199-38.046 36.487-22.922 52.477-35.217 52.477-56.75 0-23.424-13.517-39.069-24.858-48.068-18.205-14.446-43.505-22.4-71.236-22.4-42.068 0-79.912 28.092-92.029 68.317-6.124 20.326-27.564 31.838-47.892 25.716-20.325-6.124-31.839-27.564-25.716-47.891 10.5-34.85 32.35-66.169 61.526-88.185C438.086 248.577 474.088 236.53 512 236.53c45.01 0 87.28 13.871 119.02 39.06 34.79 27.605 53.949 66.06 53.949 108.284 0 66.273-51.127 98.394-88.456 121.845-31.32 19.675-46.076 30.521-46.076 44.918v25.625c0 21.228-17.208 38.437-38.437 38.437z"/>
    </g>
</svg>
